packages/kaspersky-hexa-ui-icons/src/iconsSVGs/24/SendCommand.svg

<svg width="24" height="24" viewBox="0 0 24 24" fill="none" xmlns="http://www.w3.org/2000/svg">
<path d="M8 2C6.34315 2 5 3.34315 5 5V8H7V5C7 4.44772 7.44772 4 8 4H16C16.5523 4 17 4.44772 17 5V19C17 19.5523 16.5523 20 16 20H8C7.44772 20 7 19.5523 7 19V14H5V19C5 20.6569 6.34315 22 8 22H16C17.6569 22 19 20.6569 19 19V5C19 3.34315 17.6569 2 16 2H8Z" fill="black"/>
<path d="M11 17C10.4477 17 10 17.4477 10 18C10 18.5523 10.4477 19 11 19H13C13.5523 19 14 18.5523 14 18C14 17.4477 13.5523 17 13 17H11Z" fill="black"/>
<path d="M2 11C2 10.4477 2.44772 10 3 10H10.5858L9.29289 8.70711C8.90237 8.31658 8.90237 7.68342 9.29289 7.29289C9.68342 6.90237 10.3166 6.90237 10.7071 7.29289L13.5704 10.1562C13.5868 10.1726 13.6034 10.1888 13.62 10.2051C13.6557 10.2401 13.6915 10.2752 13.7255 10.3118C13.7477 10.3351 13.7687 10.3596 13.7886 10.385C13.7951 10.3932 13.8014 10.4016 13.8076 10.4101C13.8554 10.4754 13.8943 10.5451 13.9243 10.6177C13.9731 10.7355 14 10.8646 14 11C14 11.1354 13.9731 11.2645 13.9243 11.3823C13.8943 11.4549 13.8554 11.5246 13.8076 11.5899C13.8014 11.5984 13.7951 11.6068 13.7886 11.615C13.7687 11.6405 13.7476 11.6649 13.7255 11.6883C13.6915 11.7249 13.6557 11.7599 13.62 11.7949C13.6034 11.8112 13.5868 11.8274 13.5704 11.8438L10.7071 14.7071C10.3166 15.0976 9.68342 15.0976 9.29289 14.7071C8.90237 14.3166 8.90237 13.6834 9.29289 13.2929L10.5858 12H3C2.44772 12 2 11.5523 2 11Z" fill="black"/>
</svg>

<svg xmlns="http://www.w3.org/2000/svg" width="24" height="24" fill="none" viewBox="0 0 24 24"><path fill="#000" fill-rule="evenodd" d="M8 2C6.3431 2 5 3.3431 5 5v3h2V5c0-.5523.4477-1 1-1h8c.5523 0 1 .4477 1 1v14c0 .5523-.4477 1-1 1H8c-.5523 0-1-.4477-1-1v-5H5v5c0 1.6569 1.3431 3 3 3h8c1.6569 0 3-1.3431 3-3V5c0-1.6569-1.3431-3-3-3zm-5 8c-.5523 0-1 .4477-1 1s.4477 1 1 1h7.5858l-1.2929 1.2929c-.3905.3905-.3905 1.0237 0 1.4142s1.0237.3905 1.4142 0l2.8633-2.8633q.0247-.0245.0496-.0489c.0357-.035.0715-.07.1055-.1066a1 1 0 0 0 .0821-.0984A.997.997 0 0 0 14 11a.997.997 0 0 0-.2745-.6882 3 3 0 0 0-.1055-.1067q-.025-.0244-.0496-.0489l-2.8633-2.8633c-.3905-.3905-1.0237-.3905-1.4142 0s-.3905 1.0237 0 1.4142L10.5858 10zm8 7c-.5523 0-1 .4477-1 1s.4477 1 1 1h2c.5523 0 1-.4477 1-1s-.4477-1-1-1z"/></svg>
